X:27
T: A rossz feleség
Q: "Rubato"
L:1/8
K:F
gggf ed d d3 |
gfed cc G G3 |
c2 cB | cc d2 |
BAGF | GA B2 |
dcBA | G4 | G2 z2 |

